icons/svg/old_road_shields/h_sec_shield6.svg

<svg width="53" height="17" viewBox="0 0 53 17" fill="none" xmlns="http://www.w3.org/2000/svg">
<g clip-path="url(#clip0)">
<path fill-rule="evenodd" clip-rule="evenodd" d="M7.87099 0.00100708H44.957C49.271 0.00100708 52.785 3.52101 52.785 7.84301V8.72901C52.785 13.049 49.271 16.569 44.957 16.569H7.87099C3.55699 16.569 0.0419922 13.049 0.0419922 8.72901V7.84301C0.0419922 3.52001 3.55599 0.00100708 7.87099 0.00100708Z" fill="#E7B868"/>
<path fill-rule="evenodd" clip-rule="evenodd" d="M7.92701 1.05899H44.956C48.671 1.05899 51.727 4.12099 51.727 7.86999V8.64299C51.727 12.391 48.67 15.454 44.956 15.454H7.92701C4.21301 15.454 1.15601 12.392 1.15601 8.64299V7.86999C1.15601 4.12199 4.21401 1.05899 7.92701 1.05899Z" fill="white"/>
<path fill-rule="evenodd" clip-rule="evenodd" d="M8.26999 2.43201H44.556C47.613 2.43201 50.099 4.92201 50.099 7.98501V8.61301C50.099 11.646 47.613 14.136 44.556 14.136H8.26999C5.21299 14.136 2.72699 11.646 2.72699 8.61301V7.98501C2.72699 4.92301 5.21399 2.43201 8.26999 2.43201Z" fill="#E7B868"/>
</g>
<defs>
<clipPath id="clip0">
<path d="M0 0H52.77V16.568H0V0Z" fill="white"/>
</clipPath>
</defs>
</svg>

<?xml version="1.0" encoding="utf-8"?>
<!-- Generator: Adobe Illustrator 16.0.4, SVG Export Plug-In . SVG Version: 6.00 Build 0)  -->
<!DOCTYPE svg PUBLIC "-//W3C//DTD SVG 1.1//EN" "http://www.w3.org/Graphics/SVG/1.1/DTD/svg11.dtd">
<svg version="1.1" id="Слой_1" xmlns="http://www.w3.org/2000/svg" xmlns:xlink="http://www.w3.org/1999/xlink" x="0px" y="0px"
	 width="52.77px" height="16.568px" viewBox="0 0 52.77 16.568" enable-background="new 0 0 52.77 16.568" xml:space="preserve">
<path fill-rule="evenodd" clip-rule="evenodd" fill="#E7B868" d="M7.871,0.001h37.086c4.314,0,7.828,3.52,7.828,7.842v0.886
	c0,4.32-3.514,7.84-7.828,7.84H7.871c-4.314,0-7.829-3.52-7.829-7.84V7.843C0.042,3.52,3.556,0.001,7.871,0.001L7.871,0.001z"/>
<path fill-rule="evenodd" clip-rule="evenodd" fill="#FFFFFF" d="M7.927,1.059h37.029c3.715,0,6.771,3.062,6.771,6.811v0.773
	c0,3.748-3.057,6.811-6.771,6.811H7.927c-3.714,0-6.771-3.062-6.771-6.811V7.87C1.156,4.122,4.214,1.059,7.927,1.059L7.927,1.059z"
	/>
<path fill-rule="evenodd" clip-rule="evenodd" fill="#E7B868" d="M8.27,2.432h36.286c3.057,0,5.543,2.49,5.543,5.553v0.628
	c0,3.033-2.486,5.523-5.543,5.523H8.27c-3.057,0-5.543-2.49-5.543-5.523V7.985C2.727,4.923,5.214,2.432,8.27,2.432L8.27,2.432z"/>
</svg>
